svg/muteRetweet.svg

<svg width="284" height="284" viewBox="0 0 284 284" fill="none" xmlns="http://www.w3.org/2000/svg">
<path fill-rule="evenodd" clip-rule="evenodd" d="M198.363 175.165V133.916L178.645 152.272V155.447L198.363 175.165Z" fill="#1A1919"/>
<path fill-rule="evenodd" clip-rule="evenodd" d="M137.447 165.284H122.51V150.347L116.259 144.096C116.038 144.267 115.814 144.45 115.584 144.652L87.7035 170.283C86.3175 171.436 85.6255 172.821 85.6255 174.439C85.6255 176.055 86.3175 177.44 87.7035 178.594L115.584 204.225C117.549 205.957 119.193 206.533 120.519 205.957C121.849 205.378 122.51 203.878 122.51 201.454V183.593H155.756L137.447 165.284Z" fill="#1A1919"/>
<path fill-rule="evenodd" clip-rule="evenodd" d="M204.943 51.7084C199.183 55.8804 193.461 60.0874 187.986 64.5974C214.299 80.2574 231.97 108.983 231.97 141.763C231.97 162.589 224.838 181.779 212.889 197.023L86.9935 71.1274C100.696 60.3884 117.576 53.5244 135.978 52.2504C138.046 52.1074 140.132 52.0294 142.236 52.0294C158.935 52.0294 174.581 56.6194 187.986 64.5974C193.461 60.0874 199.183 55.8804 204.943 51.7084C187.167 39.3074 165.553 32.0294 142.236 32.0294C141.878 32.0294 141.522 32.0394 141.164 32.0424C81.0545 32.6184 32.5015 81.5174 32.5015 141.763C32.5015 168.648 42.1755 193.27 58.2245 212.351C61.7825 206.136 65.7015 200.065 69.1195 193.729C58.6605 179.056 52.5015 161.115 52.5015 141.763C52.5015 122.468 58.6255 104.579 69.0285 89.9314L194.07 214.974C179.421 225.376 161.53 231.498 142.236 231.498C112.108 231.498 85.4015 216.573 69.1195 193.729C65.7015 200.065 61.7825 206.136 58.2245 212.351C78.3545 236.284 108.516 251.498 142.236 251.498C202.84 251.498 251.97 202.368 251.97 141.763C251.97 104.476 233.368 71.5384 204.943 51.7084Z" fill="#1A1919"/>
<path fill-rule="evenodd" clip-rule="evenodd" d="M141.442 118.244H161.962V136.105C161.962 137.584 162.211 138.716 162.705 139.507L163.62 140.422C163.728 140.488 163.834 140.556 163.952 140.607C165.279 141.186 166.923 140.607 168.888 138.876L196.769 113.245C198.155 112.092 198.847 110.707 198.847 109.089C198.847 107.473 198.155 106.088 196.769 104.934L168.888 79.3032C166.923 77.5712 165.279 76.9952 163.952 77.5712C162.623 78.1502 161.962 79.6502 161.962 82.0742V99.9352H123.133L141.442 118.244Z" fill="#1A1919"/>
<path fill-rule="evenodd" clip-rule="evenodd" d="M86.1099 113.946V149.613L104.581 132.417L86.1099 113.946Z" fill="#1A1919"/>
</svg>

<svg width="284" height="284" viewBox="0 0 284 284" xmlns="http://www.w3.org/2000/svg">
    <g fill="#1A1918" fill-rule="evenodd">
        <polygon points="198.3623 175.1648 198.3623 133.9158 178.6443 152.2718 178.6443 155.4468"/>
        <path d="M137.447 165.284H122.51v-14.937l-6.25-6.251c-.222.17-.446.354-.675.556l-27.881 25.63c-1.386 1.154-2.078 2.539-2.078 4.157 0 1.616.691 3 2.078 4.155l27.88 25.63c1.965 1.733 3.61 2.309 4.935 1.733 1.33-.58 1.991-2.08 1.991-4.503v-17.861h33.246l-18.309-18.31z"/>
        <path d="M204.944 51.708c-5.76 4.172-11.482 8.38-16.957 12.89 26.313 15.66 43.984 44.385 43.984 77.165 0 20.826-7.132 40.016-19.081 55.26L86.994 71.127c13.703-10.739 30.583-17.603 48.985-18.877a90.679 90.679 0 0 1 6.258-.22c16.699 0 32.345 4.59 45.75 12.567 5.475-4.51 11.197-8.717 16.957-12.889-17.776-12.4-39.39-19.679-62.707-19.679-.358 0-.714.01-1.072.013-60.11.576-108.663 49.475-108.663 109.721 0 26.885 9.674 51.507 25.723 70.588 3.558-6.215 7.477-12.286 10.895-18.622-10.46-14.673-16.618-32.614-16.618-51.966 0-19.295 6.124-37.184 16.527-51.832L194.07 214.974c-14.65 10.402-32.54 16.524-51.834 16.524-30.128 0-56.835-14.925-73.117-37.769-3.418 6.336-7.337 12.407-10.895 18.622 20.13 23.933 50.292 39.147 84.012 39.147 60.604 0 109.734-49.13 109.734-109.735 0-37.287-18.602-70.225-47.027-90.055"/>
        <path d="M141.442 118.244h20.52v17.861c0 1.48.249 2.611.743 3.402l.915.915c.108.066.214.134.332.185 1.327.58 2.97 0 4.936-1.73l27.88-25.632c1.387-1.153 2.079-2.538 2.079-4.156 0-1.616-.692-3-2.078-4.155l-27.881-25.63c-1.965-1.733-3.61-2.309-4.936-1.733-1.33.58-1.99 2.08-1.99 4.503v17.861h-38.83l18.31 18.31z"/>
        <polygon points="86.11 113.9459 86.11 149.6129 104.581 132.4169"/>
    </g>
</svg>
